neru-light-classic/22x22/actions/transform-browse.svg

<svg xmlns="http://www.w3.org/2000/svg" width="22" height="22" version="1.1">
 <defs>
  <style id="current-color-scheme" type="text/css">
   .ColorScheme-Text { color:#1e333d; } .ColorScheme-Highlight { color:#3fb7ff; }
  </style>
 </defs>
 <path style="fill:currentColor" class="ColorScheme-Text" d="M 14.45,18.478 C 13.069,19.068 11.707,19.161 10.567,18.741 9.9941,18.531 4.918,16.393 4.539,16.118 4.2199,15.886 4.0771,15.653 4.0317,15.292 3.9255,14.446 4.6833,13.831 5.5283,14.078 6.3461,14.378 8.0813,14.754 8.0813,14.754 L 6.0342,11.08 C 4.1505,7.699 3.9882,7.386 4.0006,7.163 4.0299,6.6338 4.4231,6.2421 4.9501,6.2171 5.4576,6.193 5.5322,6.2893 6.9411,8.789 8.1263,10.891 8.225,11.047 8.3909,11.084 8.6191,11.134 8.6899,11.089 8.7373,10.864 8.7717,10.7 8.6123,10.392 7.1726,7.837 5.6299,5.1002 5.5699,4.9822 5.5765,4.7001 5.5952,3.8989 6.5258,3.5093 7.157,4.0385 7.2688,4.1322 7.8836,5.1664 8.913,6.9924 10.439,9.7 10.503,9.802 10.658,9.797 10.854,9.791 10.981,9.645 10.974,9.434 10.971,9.341 10.392,8.252 9.5383,6.735 8.4454,4.7922 8.1066,4.1441 8.104,3.9915 8.0987,3.6727 8.3033,3.3343 8.6121,3.1511 9.0394,2.9537 9.4988,2.9294 9.6745,3.2005 L 11.287,6.0617 C 12.329,7.909 12.949,8.954 13.038,9.01 13.192,9.108 13.448,8.992 13.498,8.803 13.521,8.712 13.236,8.157 12.429,6.7247 11.205,4.5537 11.085,4.3399 11.329,3.8837 11.876,3.2359 12.592,3.2015 12.94,3.6857 L 15.359,8.022 C 16.074,9.68 17.555,11.219 17.901,12.991 18.206,14.548 17.808,15.864 16.696,16.977 16.218,17.455 15.111,18.196 14.45,18.478 Z"/>
</svg>

<svg xmlns="http://www.w3.org/2000/svg" width="22" height="22"><defs><style id="current-color-scheme" type="text/css"></style></defs><path d="M14.45 18.478c-1.381.59-2.743.683-3.883.263-.573-.21-5.649-2.348-6.028-2.623-.32-.232-.462-.465-.507-.826-.107-.846.651-1.461 1.496-1.214.818.3 2.553.676 2.553.676L6.034 11.08C4.151 7.699 3.988 7.386 4.001 7.163c.029-.53.422-.92.95-.946.507-.024.581.072 1.99 2.572 1.185 2.102 1.284 2.258 1.45 2.295.228.05.299.005.346-.22.035-.164-.125-.472-1.564-3.027C5.63 5.1 5.57 4.982 5.577 4.7c.018-.801.949-1.19 1.58-.662.112.094.727 1.128 1.756 2.954 1.526 2.708 1.59 2.81 1.745 2.805.196-.006.323-.152.316-.363-.003-.093-.582-1.182-1.436-2.699-1.093-1.943-1.431-2.59-1.434-2.744-.005-.318.2-.657.508-.84.427-.197.887-.222 1.063.05l1.612 2.86c1.042 1.848 1.662 2.893 1.751 2.949.154.098.41-.018.46-.207.023-.091-.262-.646-1.069-2.078-1.224-2.171-1.344-2.385-1.1-2.841.547-.648 1.263-.683 1.611-.198l2.419 4.336c.715 1.658 2.196 3.197 2.542 4.969.305 1.557-.093 2.873-1.205 3.986-.478.478-1.585 1.219-2.246 1.501z" fill="currentColor" color="#1e333d"/></svg>
